icons/svg/single-number-reach_16.svg

<?xml version="1.0" encoding="UTF-8"?>
<svg width="16px" height="16px" viewBox="0 0 16 16" version="1.1" xmlns="http://www.w3.org/2000/svg" xmlns:xlink="http://www.w3.org/1999/xlink">
    <!-- Generator: Sketch 56.3 (81716) - https://sketch.com -->
    <title>phone/single-number-reach_16</title>
    <desc>Created with Sketch.</desc>
    <g id="Icons-Webex" stroke="none" stroke-width="1" fill="none" fill-rule="evenodd">
        <g id="phone/single-number-reach_16" fill="#000000">
            <g id="single-number-reach_16">
                <path d="M15.8592,7.6349697 C15.9482,7.72296559 15.9982,7.84295999 15.9982,7.96795415 C15.9982,8.09294831 15.9482,8.21294271 15.8592,8.3009386 L13.6342,10.5068356 C13.5432,10.5968314 13.4232,10.6418293 13.3042,10.6418293 C13.1832,10.6418293 13.0632,10.5958314 12.9712,10.5038357 C12.7892,10.3198443 12.7912,10.0228582 12.9742,9.84086668 L14.3962,8.43093253 L11.0432,8.43093253 C10.7842,8.43093253 10.5742,8.22094233 10.5742,7.96195443 C10.5742,7.70296653 10.7842,7.49297633 11.0432,7.49297633 L14.3842,7.49297633 L12.9742,6.09504162 C12.7912,5.91205017 12.7902,5.61506404 12.9712,5.43207259 C13.1542,5.24908113 13.4502,5.24708123 13.6342,5.42907273 L15.8592,7.6349697 Z M4.4656,9.9966594 C4.7416,9.9966594 4.9656,10.2206489 4.9656,10.496636 C4.9656,10.7726232 4.7416,10.9966127 4.4656,10.9966127 L0.4996,10.9966127 C0.2246,10.9966127 -0.0004,10.7726232 -0.0004,10.496636 C-0.0004,10.2206489 0.2246,9.9966594 0.4996,9.9966594 L4.4656,9.9966594 Z M4.4656,4.99689291 C4.7416,4.99689291 4.9656,5.22088245 4.9656,5.49686956 C4.9656,5.77285667 4.7416,5.99684621 4.4656,5.99684621 L0.4996,5.99684621 C0.2246,5.99684621 -0.0004,5.77285667 -0.0004,5.49686956 C-0.0004,5.22088245 0.2246,4.99689291 0.4996,4.99689291 L4.4656,4.99689291 Z M10.241,13.987673 C10.48,13.7476842 10.554,13.387701 10.428,13.0717158 L9.97,11.9207695 C9.843,11.5967847 9.579,11.3487962 9.248,11.2388014 L8.562,11.0088121 C8.144,10.8698186 7.844,10.4948361 7.796,10.0538567 C7.638,8.62192361 7.634,7.11999375 7.783,5.9350491 C7.838,5.50006941 8.138,5.13108665 8.55,4.99409304 L9.248,4.76010397 C9.579,4.65110906 9.842,4.40212069 9.97,4.07713587 L10.428,2.92718958 C10.555,2.61120434 10.481,2.25122115 10.24,2.0102324 L9.325,1.09427518 C9.225,0.995279806 9.095,0.941282328 8.956,0.941282328 C8.934,0.941282328 8.912,0.942282282 8.89,0.945282142 C8.732,0.965281207 8.596,1.0532771 8.516,1.18927075 C7.53,2.84819327 6.964,5.33007735 6.964,7.9989527 C6.964,10.6678281 7.53,13.1497121 8.515,14.8096346 C8.595,14.9456283 8.732,15.0346241 8.89,15.0536232 C9.049,15.0696225 9.21,15.0186249 9.325,14.9046302 L10.241,13.987673 Z M10.845,11.5727858 L11.303,12.723732 C11.568,13.388701 11.413,14.1466656 10.907,14.6526419 L9.991,15.5695991 C9.714,15.8475861 9.345,15.999579 8.958,15.999579 C8.897,15.999579 8.836,15.9955792 8.775,15.9875796 C8.326,15.9315822 7.936,15.6775941 7.706,15.2916121 C6.637,13.4896963 6.022,10.8328203 6.022,7.9989527 C6.022,5.16608501 6.637,2.50820915 7.706,0.70829321 C7.936,0.321311284 8.326,0.0673231463 8.774,0.0103258083 C9.229,-0.0436716698 9.67,0.107321278 9.991,0.42930624 L10.907,1.34526346 C11.413,1.85323974 11.569,2.61120434 11.303,3.27617328 L10.845,4.42611957 C10.613,5.00909234 10.139,5.45607147 9.547,5.65406222 L8.847,5.88705134 C8.776,5.91105022 8.725,5.97404728 8.716,6.05204363 C8.579,7.15199226 8.584,8.60992417 8.73,9.95286145 C8.739,10.0298578 8.79,10.0928549 8.86,10.1168538 L9.547,10.3448431 C10.14,10.5448338 10.614,10.9918129 10.845,11.5727858 Z" id="fill"></path>
            </g>
        </g>
    </g>
</svg>

<svg width="16" height="16" xmlns="http://www.w3.org/2000/svg"><path d="M15.86 7.635a.468.468 0 010 .666l-2.226 2.206a.469.469 0 01-.66-.666l1.422-1.41h-3.353a.469.469 0 010-.938h3.341l-1.41-1.398a.47.47 0 01.66-.666l2.225 2.206zM4.465 9.997a.5.5 0 010 1H.5a.5.5 0 010-1h3.966zm0-5a.5.5 0 010 1H.5a.5.5 0 010-1h3.966zm5.775 8.99c.239-.24.313-.6.187-.915L9.97 11.92a1.168 1.168 0 00-.722-.682l-.686-.23a1.136 1.136 0 01-.766-.955c-.158-1.432-.162-2.934-.013-4.119.055-.435.355-.804.767-.94l.698-.235c.331-.109.594-.358.722-.683l.458-1.15a.848.848 0 00-.188-.917l-.915-.916a.52.52 0 00-.809.095C7.53 2.85 6.964 5.33 6.964 8c0 2.669.566 5.15 1.551 6.81a.5.5 0 00.375.245.54.54 0 00.435-.15l.916-.916zm.604-2.414l.458 1.15a1.79 1.79 0 01-.396 1.93l-.916.917a1.452 1.452 0 01-1.216.418 1.444 1.444 0 01-1.069-.696c-1.069-1.802-1.684-4.46-1.684-7.293s.615-5.49 1.684-7.29A1.458 1.458 0 019.991.43l.916.915c.506.508.662 1.266.396 1.931l-.458 1.15a2.118 2.118 0 01-1.298 1.228l-.7.233a.196.196 0 00-.131.165c-.137 1.1-.132 2.558.014 3.9.009.078.06.14.13.165l.687.228c.593.2 1.067.647 1.298 1.228z" fill="#000" fill-rule="evenodd"/></svg>
